X:1
T:CREPUSCULO
T:CREPUSCULO
%%score { ( 1 2 ) { ( 3 4 ) | ( 5 6 7 ) } }
L:1/8
Q:1/4=150
M:4/4
K:Ab
V:1 treble nm="Piano"
V:2 treble 
V:3 treble nm="Piano"
V:4 treble 
V:5 bass 
V:6 bass 
V:7 bass 
V:1
"^Allegretto" z8 | z8 | z8 | z8 | z8 | z8 | z8 | z8 | z8 | z8 | z8 | z8 | z8 | z8 | z8 | z8 | z8 | %17
 z8 | z8 | z8 | z8 | z8 | z8 | z8 | z8 | z8 | z8 | z8 | z8 | z8 | z8 | z8 | z8 | z8 | z8 | z8 | %36
 z8 | z8 | z8 | z8 | z8 | z8 | z8 | z8 | z8 | z8 | z8 |[K:Ab]!pp! [ee']2 ([aa']2 [cc']2 [ff']2 | %48
 [ee']2 [cc']2 [Bb]2 [Aa]2 | [Gg]2 [ff']2 [ee']4) | ([_G_g]2 [ff']2 [ee']4-) | %51
 [ee']2 ([dd']2 [bb']2 [aa']2 | [gg']2 [ff']2 [ee']2 [dd']2 | [cc']2) ([ee']2 [Bb]2 [ee']2) | %54
 [ee']2 ([Aa]2 [aa']4) |"_dim. e rall."!8va(! [bb']2 ([ee']2 [e'e'']4) | [aa']4 x4 | %57
 !fermata![a'e''a'']8!8va)! |] %58
V:2
 x8 | x8 | x8 | x8 | x8 | x8 | x8 | x8 | x8 | x8 | x8 | x8 | x8 | x8 | x8 | x8 | x8 | x8 | x8 | %19
 x8 | x8 | x8 | x8 | x8 | x8 | x8 | x8 | x8 | x8 | x8 | x8 | x8 | x8 | x8 | x8 | x8 | x8 | x8 | %38
 x8 | x8 | x8 | x8 | x8 | x8 | x8 | x8 | x8 |[K:Ab] z c'/a/ z e'/c'/ z a/e/ z c'/a/ | %48
 z c'/a/ z a/e/ z e/c/ z e/c/ | z e/d/ z d'/b/ z d'/b/ z d'/b/ | x c/A/ z c'/a/ x c'/a/ z c'/a/ | %51
 z a/f/ z a/f/ z f'/b/ z f'/d'/ | z d'/b/ z d'/b/ z b/f/ z b/f/ | z g/e/ z c'/g/ z g/e/ z b/g/ | %54
 z c'/a/ z e/c/ z e'/c'/ z e'/b/ |!8va(! z g'/e'/ z b/g/ z b'/g'/ z b'/g'/ | %56
 z e'/c'/ z e'/c'/ z e'/c'/ z e'/c'/ | x8!8va)! |] %58
V:3
!mp! (e2 a2 c2 f2 | e2 c2 B2 A2 | G2) (f2 e4) |!p! (G2 _f2 (e4) |!mf! e2) (a2 c2 f2 | %5
 e2) c2 B2 A2 | G2 B2 F2 B2 | B2 E6 | (e2 a2 c2 f2 | e2 c2 B2 A2 | G2)!>(! (f2 e4)!>)! | %11
!<(! (G2 f2 (e4)!<)! |!<(! e2) (d2 b2 a2!<)! | g2 f2 e2 d2 | c2) (e2 B2 e2 | e2) (A2 a4) | %16
!mf! B2!<(! (g2 =d2 f2!<)! | e2 B2 A2 G2 | G2) (B2 F2 B2 | (B2) E2 e4) |!f!"_più" c2 (a2 =e2 g2 | %21
 f2 c2 B2 A2 | A2) (c2 G2 c2) | (c2 F2 f4) | =d2 (g2 ^f2 =a2 | g2 =d2 c2 B2 | B2) (=d2 =A2 d2) | %27
!mf! (_d2!<(! B2 c2) d2-!<)! |!p! d2 (=B2 c2 =d2- | d2)!<(! G2 g4-!<)! | %30
!>(! g2 !tenuto!g2 !tenuto!g2 !tenuto!g2!>)! |!p! g2 (c'2 =e2 =a2 | g2 =e2 =d2 c2 | =B2) (=a2 g4) | %34
!pp! (=B2 =a2 g4) | g2"_cresc." (c'2 e2 a2 | g2 e2 =d2 c2 | B2) (g2 f4) | (e2 c'2 b2)!mf! [Ee]2 | %39
 [Ee]2 ([Aa]2 [Cc]2 [Ff]2 | [Ee]2 [Cc]2 [B,B]2 [A,A]2 | [G,G]2 [Ff]2 [Ee]4) | %42
!p! ([G,G]2 [_F_f]2 [Ee]4) |!mf! ([Ee]2 [Aa]2 [Cc]2 [Ff]2 | [Ee]2 [Cc]2 [B,B]2 [A,A]2 | %45
 [G,G]2) ([B,B]2 F2 [B,B]2 | [B,B]2) E2!>(! [Ee]2 [ee']2!>)! |[K:Ab] z2 !>!E2- [EAe]4 | %48
 z2 !>!E2- [EA]4 | z2 !>!E2- [EGBd]4 | z2 !>!E2- [E_GAc]4 | z2 !>!F2- [FAd]4 | z2 !>!F2- [FAd]4 | %53
 z2 !>!E2- [EGd]4 | z2 !>!E2- [EAce]4 | z2 !>!E2- [EGde]4 | z8 | !fermata!z8 |] %58
V:4
 e[EAc] a[Ace] c[EA] f[Ac] | e[Ac] c[EA] B[CE] A[CE] | G[B,DE] f[GBd]x[GBd] z [GBd] | %3
 G[B,DE] _f[GBd]x[GBd] z [GBd] | z [Ac] a[Ace] c[EA] f[Ac] | (e[Ac] c[EA] B[CE] A[CE] | %6
 G[B,=D] B[B,DG] F[B,D] B[B,DF] | B[B,_DG]x[G,B,] z [G,C]) z [G,D] | e[EAc] a[Ace] c[EA] f[Ac] | %9
 e[Ac] c[EA] B[CE] A[CE] | G[B,DE] f[GBd]x[GBd] z [GBd] | G[B,DE] f[GBd]x[Ac] z [Ac] | %12
 z A dA b[Ad] a[Ad] | g[Bd] f[Bd] e[FB] d[FB] | c[EG] e[EGc] B[EG] e[EGB] | %15
 e[EAc] A[A,E]x[Ace] z [Acf] | B[B,FA] g[GB=d] d[GB] f[FBd] | e[GB] B[EG] A[B,E] G[B,E] | %18
 G[B,=D] B[B,DG] F[B,D] B[B,DF] | B[B,EG]z2x[EGB] z [EGB] | c[=EGB] a[Ac=e] e[Ac] g[Gce] | %21
 f[Ac] c[FA] B[CF] A[CF] | A[C=E] c[CE] G[CE] c[CEG] | c[CFA]z2x[FAc] z [FAc] | %24
 =d[^F=Ac] g[Bd^f] f[Bd] =a[Adf] | g[B=d] d[GB] c[=DG] B[DG] | B[=D^F] =d[DFB] =A[DF] d[DFA] | %27
 d[=DGB] B[DG] c[EG] d[D^F=A] | z [=DG=B] B[=EG] c[=EG] =d[D^F=A] | %29
 z [=DG=B] z D z [GB=d] z [GBd] | z [G=B=d] z [GBd] z [GB=e] z [GBf] | %31
 z [Gc=e] c'[cg] e[Gc] =a[=Ac] | g[Gc] =e[=EG] =d[EG] c[EG] | =B[=DG] =a[G=df]x[Gdf] z [Gdf] | %34
 =B[=DG] =a[G=df]x[Gdf] z [Gdf] | z [Gc_e] c'[cg] e[Gc] a[Ac] | g[Gc] e[EG] =d[EG] c[EG] | %37
 B[=DA] g[GB=d]x[FBd] z [FBd] | e[EB_d] c'[ceg] b[Beg] z d/B/ | z c/A/ z e/c/ z A/E/ z c/A/ | %40
 z c/A/ z A/E/ z E/C/ z E/C/ | x E/D/ z d/B/ z d/B/ z d/B/ | x E/D/ z d/B/ z d/B/ z d/B/ | %43
 x c/A/ z e/c/ z A/E/ z c/A/ | z c/A/ z A/E/ z E/C/ z E/C/ | z =D/B,/ z G/D/ z D/B,/ z F/D/ | %46
 z G/_D/ x z z c/G/ z d'/b/ |[K:Ab] x8 | x8 | x8 | x8 | x8 | x8 | x8 | x8 | x8 | x8 | x8 |] %58
V:5
 [A,,,A,,]2 E,2- [E,A,CE]4 | [A,,,A,,]2 E,2- [E,A,]4 | [A,,,A,,]2 E,2- [E,G,B,DE]4 | %3
 [A,,,A,,]2 E,2- [E,G,B,DE]4 | [A,,,A,,]2 E,2- [E,A,CE]4 | [F,,,F,,]2 C,2- [C,F,A,]4 | %6
 [B,,,B,,]2 B,,2- [B,,=D,A,]4 | [E,,E,]2!>(! _D,2 C,2 B,,2!>)! | [A,,,A,,]2 E,2- [E,A,CE]4 | %9
 [A,,,A,,]2 E,2- [E,A,]4 | [A,,,A,,]2 E,2- [E,G,B,DE]4 | [A,,,A,,]2 A,2- [A,CE_G]4 | %12
 [D,,D,]2 F,2- [F,A,DF]4 | [B,,,B,,]2 F,2- [F,B,DF]4 | [E,,E,]2 E,2- [E,G,D]4 | %15
 [A,,,A,,]2!<(! (C,2 F,2 E,2)!<)! | [B,,,=D,]2 B,,2- [B,,D,A,B,]4 | [B,,,B,,]2 B,,2- [B,,E,]4 | %18
 [B,,,B,,]2 B,,2- [B,,=D,A,]4 | [E,,E,]2!<(! (E,[G,B,] =D,[E,G,B,] _D,[E,G,B,])!<)! | %20
 [C,,C,]2 C,2- [C,=E,B,C]4 | [C,,C,]2 C,2- [C,F,]4 | [C,,C,]2 C,2- [C,=E,B,]4 | %23
 [E,,E,]2!<(! (F,[A,C] =E,[F,A,C] _E,[F,A,C])!<)! | [=D,,=D,]2 D,2- [D,^F,C=D]4 | %25
 [=D,,=D,]2 D,2- [D,G,]4 | [=D,,=D,]2 D,2- [D,^F,C]4 | %27
 A,,[=D,G,] B,,[D,G,] =A,,[C,E,G,] =D,,[C,D,^F,] | %28
 A,,[=D,G,] B,,[D,G,] =A,,[C,E,G,] =D,,[C,D,^F,] | G,,[=D,G,] ^F,[G,=B,] =F,[G,B,] D,[F,G,B,] | %30
 =B,,[F,G,] (F,,[B,,G,] =E,,[B,,G,] =D,,[B,,G,] | C,,) z =E,[=CE] G,[CE] F,[CF] | %32
 =E,[C=E] C,[G,C] =D,[G,C] E,[G,C] | F,[G,=B,] =D,[G,=B,]x[F,G,B,] z [F,G,B,] | %34
 F,[G,=B,] =D,[G,=B,]x[F,G,B,] z [F,G,B,] | C,[_E,G,C] E,[CE] G,[CE] F,[CF] | %36
 E,C C,[G,C] =D,[G,C] E,[G,C] | F,[A,B,] =D,[A,B,] B,,[F,A,B,] A,,[D,F,B,] | %38
 G,,[E,B,] E,,[G,C]x[G,D] z [G,D] | [A,,,A,,]2 E,2- [E,A,E]4 | [A,,,A,,]2 E,2- [E,C]4 | %41
 [A,,,A,,]2 E,2- [E,G,B,D]4 | [A,,,A,,]2 E,2- [E,G,B,D]4 | [A,,,A,,]2 E,2- [E,A,E]4 | %44
 [F,,,F,,]2 C,2- [C,F,]4 | [B,,,B,,]2 B,,2- [B,,=D,A,]4 | x2"^molto" B,G, C,E, B,,E, | %47
[K:Ab] A,,2 z2 z2 !>!E2- | [E,E]6 !>!E2- | [E,E]4 x2 !>!E2- | [E,E]6 !>!E2- | [E,E]6 !>!E2- | %52
 [E,E]6 !>!E2- | [E,E]6 !>!E2- | [E,E]6 !>!E2- | [E,E]6 (E2 | !tenuto![A,A]4) !tenuto![E,E]4 | %57
 !fermata![A,,E,C]8 |] %58
V:6
 x8 | x8 | x8 | x8 | x8 | x8 | x8 | x2 (D,E, C,E, B,,E,) | x8 | x8 | x8 | x8 | x8 | x8 | x8 | x8 | %16
 x8 | x8 | x8 | x2 E,2 =D,2 _D,2 | x8 | x8 | x8 | x2 F,2 =E,2 _E,2 | x8 | x8 | x8 | %27
 A,,2 (B,,2 =A,,2 =D,,2 | A,,2) (B,,2 =A,,2 =D,,2 | G,,2) (^F,2 =F,2 =D,2 | %30
 =B,,2) F,,2 =E,,2 =D,,2 | x2 (=E,2 G,2 F,2 | =E,2 C,2 =D,2 E,2 | F,2 =D,2 =B,,4) | %34
 (F,2 =D,2 =B,,4) | C,2 (E,2 G,2 F,2 | E,2 C,2 =D,2 E,2 | F,2) (=D,2 B,,2 A,,2 | G,,2) (E,,2 E,4) | %39
 x8 | x8 | x8 | x8 | x8 | x8 | x4 F,2 z2 | E,,2 (_D,2 C,2 B,,2) |[K:Ab] x8 | x8 | x8 | x8 | x8 | %52
 x8 | x8 | x8 | x8 | x8 | x8 |] %58
V:7
 x8 | x8 | x8 | x8 | x8 | x8 | x8 | x8 | x8 | x8 | x8 | x8 | x8 | x8 | x8 | x8 | x8 | x8 | x8 | %19
 x8 | x8 | x8 | x8 | x8 | x8 | x8 | x8 | x8 | x8 | x8 | x8 | x8 | x8 | x8 | x8 | x8 | x8 | x8 | %38
 x8 | x8 | x8 | x8 | x8 | x8 | x8 | x8 | x2 E,2 x4 |[K:Ab] x8 | x8 | x8 | x8 | x8 | x8 | x8 | x8 | %55
 x8 | x8 | x8 |] %58

